X:94
T: Schloss in Oesterreich
N: Q1024M
O: Mitteleuropa, Deutschland
N: Variante (Ursprung ?) von Q0024ON ff. Anderes Lied.
R: Ballade, ??
M: 3/4
L: 1/8
K: D
D | DFAFGE | FFFD
EC | DAAGGF | F2E2z
A | AcecAG | FAd3
d | dBAFGE | E2D2z

@@@ Tune index: 723
